X: 153
T:Joy of the Dance
% Nottingham Music Database
S:Trad, arr Phil Rowe
M:6/8
K:D
(3A/2B/2c/2|"D"dcd f2e/2f/2|"G"gfg "Em"B2e/2d/2|"A7"cBA g2e|\
"D"[f3-A3-]"A7"[f2A2]f/2g/2|
"D"aba fdA|"Bm"Bcd f3|"E7"efe Bcd|"A7"[e3-c3-][e2c2](3A/2B/2c/2|
"D"dcd f2e/2f/2|"G"gfg "Em"B2e/2d/2|"A7"cBA g2e|"D"[f3-A3-]"A7"[f2A2]f/2g/2|
"D"afd A2e/2f/2|"G"gfg "E7"B2e/2d/2|"A7"Age BcA|"D"d3 d3||
"A7"c3 -cBA|"A7"[g3-A3-][gA]ec|"D"d3 -dBA|"D"[f3-A3-][fA]ed|"A7"c2c cBA|
"A7"g2g g3|"D"d2d dBA|"D"[f2A2][fA][f3A3]|"A7"c3 -cBA|"A7"[g3-A3-]-[gA]ec|
"D"d3 -dBA|"D"[f3-A3-]-[fA]ed|"G"g3 -"Em"gab|"D"f3 -fga|"Em"efg "A7"B2c|\
"D"d3 d2||<end>
<start>
